X: 14530
T: Gan Ainm
R: reel
M: 4/4
K: Amixolydian
e~A3 agef|gaeg deBd|e~A3 agef|gdBd eAAd:|
|:ceBe A2dc|BdAd G2ed|ceBe A2eA|Aecd edde:|
|:~f3d B2cd|~e3c A2Bc|dBGd BGdB|Aecd edde:|

